icons/caret-double-topB.svg

<svg width="24" height="24" viewBox="0 0 24 24" fill="none" xmlns="http://www.w3.org/2000/svg">
<path d="M16.0394 17.8875L12.1394 13.9875C12.0394 13.8875 11.9394 13.8875 11.8394 13.9875L7.93941 17.8875C7.73941 18.0875 7.93941 18.2875 8.13941 18.2875H15.8394C16.1394 18.2875 16.2394 17.9875 16.0394 17.8875Z" fill="black"/>
<path fill-rule="evenodd" clip-rule="evenodd" d="M11.9894 13.1625C12.3085 13.1625 12.538 13.3254 12.6697 13.4571L16.5145 17.3019C16.6646 17.412 16.7834 17.5664 16.8462 17.755C16.9247 17.9905 16.8991 18.2272 16.8163 18.4204C16.6454 18.8192 16.2488 19.0375 15.8394 19.0375H8.13941C7.82093 19.0375 7.47148 18.8877 7.26537 18.5785C7.15248 18.4092 7.08147 18.1848 7.11474 17.9352C7.1475 17.6895 7.27086 17.4954 7.40908 17.3571L11.3091 13.4571C11.4408 13.3254 11.6703 13.1625 11.9894 13.1625ZM11.9894 14.8981L9.35007 17.5375H14.6288L11.9894 14.8981Z" fill="black"/>
<path d="M16.0394 9.68752L12.1394 5.78752C12.0394 5.68752 11.8394 5.68752 11.8394 5.78752L7.93944 9.68752C7.83944 9.78752 7.93944 10.0875 8.13944 10.0875H15.8394C16.1394 10.0875 16.2394 9.78752 16.0394 9.68752Z" fill="black"/>
<path fill-rule="evenodd" clip-rule="evenodd" d="M11.9519 4.96252C12.1812 4.96252 12.4579 5.04533 12.6698 5.25719L16.5145 9.10193C16.6646 9.21204 16.7834 9.36647 16.8463 9.55504C16.9248 9.7905 16.8991 10.0273 16.8163 10.2205C16.6454 10.6192 16.2488 10.8375 15.8394 10.8375H8.13944C7.62139 10.8375 7.33851 10.456 7.23758 10.2205C7.18073 10.0878 7.14473 9.93087 7.15089 9.76445C7.15674 9.6065 7.20605 9.36025 7.40911 9.15719L11.2178 5.34847C11.288 5.23977 11.3807 5.15316 11.4792 5.09253C11.6565 4.98338 11.836 4.96252 11.9519 4.96252ZM11.9894 6.69818L9.3501 9.33752H14.6288L11.9894 6.69818Z" fill="black"/>
</svg>

<svg xmlns="http://www.w3.org/2000/svg" fill="none" viewBox="0 0 24 24">
  <path fill="#000" d="m16.04 17.887-3.9-3.9c-.1-.1-.2-.1-.3 0l-3.9 3.9c-.2.2 0 .4.2.4h7.7c.3 0 .4-.3.2-.4Z"/>
  <path fill="#000" fill-rule="evenodd" d="M11.99 13.162a.96.96 0 0 1 .68.295l3.845 3.845a.921.921 0 0 1 .301 1.118c-.17.4-.567.617-.977.617h-7.7c-.318 0-.668-.15-.874-.459a.934.934 0 0 1-.15-.643c.032-.245.156-.44.294-.578l3.9-3.9a.962.962 0 0 1 .68-.295Zm0 1.736-2.64 2.64h5.279l-2.64-2.64Z" clip-rule="evenodd"/>
  <path fill="#000" d="m16.04 9.688-3.9-3.9c-.1-.1-.3-.1-.3 0l-3.9 3.9c-.1.1 0 .4.2.4h7.7c.3 0 .4-.3.2-.4Z"/>
  <path fill="#000" fill-rule="evenodd" d="M11.952 4.963c.23 0 .506.082.718.294l3.845 3.845a.922.922 0 0 1 .301 1.118c-.17.4-.567.617-.977.617h-7.7c-.518 0-.8-.381-.901-.617a1.065 1.065 0 0 1-.087-.456.902.902 0 0 1 .258-.607l3.809-3.809a.833.833 0 0 1 .261-.255.901.901 0 0 1 .473-.13Zm.037 1.735L9.35 9.338h5.279l-2.64-2.64Z" clip-rule="evenodd"/>
</svg>
